resources/svg/house-line-duotone.svg

<svg xmlns="http://www.w3.org/2000/svg" viewBox="0 0 256 256" fill="currentColor"><g opacity="0.2"><path d="M151.96484,215.99158v-64h-48v64L39.9707,216V115.53855a8,8,0,0,1,2.61811-5.91906l79.9945-72.73477a8,8,0,0,1,10.76339-.00036l80.0055,72.73509a8,8,0,0,1,2.6185,5.91942V216Z"/></g><path d="M239.9707,208h-16V115.53882A16.03729,16.03729,0,0,0,218.73437,103.7L138.72754,30.96484a15.93607,15.93607,0,0,0-21.52637.001L37.207,103.7a16.034,16.034,0,0,0-5.23633,11.83862V208h-16a8,8,0,1,0,0,16h224a8,8,0,0,0,0-16Zm-192-92.46167,79.99414-72.73462,80.00586,72.73511V208H159.96484V159.9917a16.01817,16.01817,0,0,0-16-16h-32a16.01818,16.01818,0,0,0-16,16V208H47.9707ZM143.96484,208h-32V159.9917h32Z"/></svg>

<svg xmlns="http://www.w3.org/2000/svg" viewBox="0 0 256 256" fill="currentColor"><g opacity="0.2"><path d="M152,216V152H104v64H40V115.5a7.9,7.9,0,0,1,2.6-5.9l80-72.7a8,8,0,0,1,10.8,0l80,72.7a8.3,8.3,0,0,1,2.6,5.9V216Z"/></g><path d="M240,208H224V115.5a15.7,15.7,0,0,0-5.3-11.8L138.7,31a15.9,15.9,0,0,0-21.5,0l-80,72.7A16,16,0,0,0,32,115.5V208H16a8,8,0,0,0,0,16H240a8,8,0,0,0,0-16ZM48,115.5l80-72.7,80,72.7V208H160V160a16,16,0,0,0-16-16H112a16,16,0,0,0-16,16v48H48ZM144,208H112V160h32Z"/></svg>
